X:1
T:Title
%%score 1 ( 2 3 )
L:1/8
Q:1/4=90
M:4/4
K:Ab
V:1 treble nm="Oboe, Soprano"
V:2 bass nm="Oboe, Bass"
V:3 bass 
V:1
 [Ec]3 [Ec] [Ec][DB][CA][DB] | [Ec]4 [EA]4 | [FA]3 [FA] [FA][FB][FA][DF] | [CE]6 z2 | %4
w: 1.~To~ the~ Syr ian~ camp~ at~|twi light,~|Hun gry,~ thirst y,~ bleed ing,~|sore,~|
 [Ec]3 [Ec] [Ec][DB][CA][DB] | [Ec]4 [CA]4 | [EB]3 [Ec] [EB][FA][EG][=DF] | E6 z2 | %8
w: Came~ four~ lep rous~ men~ of~|Is rael;~|Found~ they~ there~ a bun dant~|store�~|
 [EB]3 [EB] [EB][Ed][Ec][EB] | [CA]4 [CE]4 | [EB]3 [EB] [EB][Ee][Ee][Ed] | [Ec]6 z2 | %12
w: Gold~ and~ sil ver,~ food~ and~|rai ment,~|"We~ must~ go~ the~ mes sage~|tell,~|
 [Ec]3 [Ed] [Ee][Ec][CA][CE] | [DF]4 [FA]2 [EA][FB] | [Ec]3 [Ec] [Ec]2 [DB]2 | [CA]6 [CA][CA] | %16
w: 'Tis~ a~ day~ of~ joy ful~|tid ings,~ Wait ing~|here,~ we~ do~ not~|well."~ * *|
 [Fd]4- [Fd][Fd][FA][FB] | [Ec]4 [Ec]2 [CA][Ec] | [EB]4- [EB][EA][EG][=DF] | E6 E[DE] | %20
w: ||||
 [CA]4- [CA][CE][CA][Ec] | [FB]4 [DF]2 [EA][FB] | [Ec]4 [DB]4 | [CA]6 z2 |] %24
w: ||||
V:2
 [A,,A,]3 [A,,A,] [A,,A,][A,,E,][A,,E,][A,,A,] | [A,,A,]4 [A,,C]4 | %2
 [D,D]3 [D,D] [D,D][D,D][D,D][D,A,] | [A,,A,]6 z2 | [A,,A,]3 [A,,A,] [A,,A,][A,,E,][A,,E,][A,,A,] | %5
 [A,,A,]4 [A,,E,]4 | [E,G,]3 [E,G,] [B,,G,][B,,B,][B,,B,][B,,A,] | [E,G,]6 z2 | %8
 [E,G,]3 [E,G,] [E,G,][E,B,][E,A,][E,G,] | [A,,A,]4 [A,,A,]4 | %10
 [E,G,]3 [E,G,] [E,G,][E,G,][E,G,][G,B,] | A,6 z2 | A,3 [A,B,] [A,C][A,,A,][A,,A,][A,,A,] | %13
 [D,A,]4 [D,A,]2 [C,A,][D,A,] | [E,A,]3 [E,A,] [E,A,]2 [E,G,]2 | [A,,A,]6 A,A, | %16
 [D,A,][D,A,][D,A,][D,A,] [D,A,][D,A,][D,A,][D,A,] | A,A,A,A, A,A,A,A, | z4 .G,2 z2 | z4 G,2 z2 | %20
 [A,,A,][A,,A,][A,,A,][A,,A,] [A,,A,][A,,A,][A,,A,][A,,A,] | %21
 [D,A,][D,A,][D,A,][D,A,] [D,A,][D,A,][C,A,][D,A,] | [E,A,]2 [E,A,][E,A,] [E,G,]2 E,2 | %23
 [A,,E,]6 z2 |] %24
V:3
 x8 | x8 | x8 | x8 | x8 | x8 | x8 | x8 | x8 | x8 | x8 | x8 | x8 | x8 | x8 | x8 | x8 | x8 | %18
 [E,G,][E,G,][E,G,][E,G,] E,-[E,C][B,,B,][B,,A,] | [E,G,][E,G,][E,G,][E,G,] E,D,[C,A,][B,,G,] | %20
 x8 | x8 | x8 | x8 |] %24

